synths/sBLUR.svg

<svg width="42" height="42" viewBox="0 0 42 42" fill="none" xmlns="http://www.w3.org/2000/svg">
<g clip-path="url(#clip0_7277_57868)">
<mask id="mask0_7277_57868" style="mask-type:alpha" maskUnits="userSpaceOnUse" x="0" y="0" width="42" height="42">
<circle cx="21" cy="21" r="21" transform="matrix(-1 0 0 1 42 0)" fill="url(#paint0_linear_7277_57868)"/>
</mask>
<g mask="url(#mask0_7277_57868)">
<circle cx="21" cy="21" r="21" transform="matrix(-1 0 0 1 42 0)" fill="#34EDB3"/>
<circle cx="18.2" cy="18.2" r="18.2" transform="matrix(-1 0 0 1 39.2 2.80005)" fill="white"/>
</g>
<circle cx="16.1" cy="16.1" r="16.1" transform="matrix(-1 0 0 1 37.1 4.90002)" fill="#0B0B22"/>
<g clip-path="url(#clip1_7277_57868)">
<circle cx="20.9999" cy="21" r="16.1" fill="#0D0808"/>
<g filter="url(#filter0_f_7277_57868)">
<g filter="url(#filter1_f_7277_57868)">
<path d="M19.2279 15.4639L18.9541 15.7961L19.2419 16.1162L19.9203 16.871V18.2082L18.409 19.6472H11.9757V11.9167H18.4267L19.9203 13.3781V14.624L19.2279 15.4639ZM17.4808 19.089H17.5899L17.6891 19.0435C18.2367 18.7926 18.5868 18.243 18.5955 17.6425L18.5955 17.6424C18.6041 17.0264 18.2513 16.4542 17.6889 16.1968L17.5898 16.1514H17.4808H13.7611H13.2611V16.6514V18.589V19.089H13.7611H17.4808ZM17.4808 15.468H17.5899L17.6891 15.4226C18.2367 15.1717 18.5868 14.622 18.5955 14.0216L18.5955 14.0214C18.6041 13.4054 18.2513 12.8333 17.6889 12.5758L17.5898 12.5304H17.4808H13.7611H13.2611V13.0304V14.968V15.468H13.7611H17.4808Z" stroke="#A01400"/>
</g>
<g filter="url(#filter2_f_7277_57868)">
<path d="M22.166 18.1731V11.9167H23.5026V17.5515V17.7586L23.649 17.905L24.5785 18.835L24.725 18.9816H24.9322H30.0972V19.6472H23.6418L22.166 18.1731Z" stroke="#A01400"/>
</g>
<g filter="url(#filter3_f_7277_57868)">
<path d="M11.9715 21.4879H13.2879V27.1967V27.4119L13.4442 27.5598L14.3828 28.4481L14.5274 28.585H14.7265H17.0801H17.2789L17.4234 28.4485L18.3403 27.5826L18.497 27.4347V27.2191V21.4879H19.9203V27.8761L18.4616 29.3168H13.4122L11.9184 27.8029L11.9715 21.4879Z" stroke="#A01400"/>
</g>
<g filter="url(#filter4_f_7277_57868)">
<path d="M28.625 21.4879L30.0975 22.8757V24.3051L29.3723 25.0552L29.0375 25.4015L29.3711 25.749L30.0975 26.5056V29.3168H28.7645L28.7419 26.6638L28.7397 26.4034L28.525 26.2559L27.8945 25.823L27.769 25.7368L27.6168 25.7352L23.9523 25.6958L23.4469 25.6904V26.1958V29.3168H22.1663V21.4879H28.625ZM27.723 25.029H27.8321L27.9313 24.9835C28.4788 24.7326 28.829 24.1829 28.8376 23.5825L28.8376 23.5823C28.8463 22.9663 28.4935 22.3942 27.9311 22.1367L27.832 22.0914H27.723H24.0033H23.5033V22.5914V24.529V25.029H24.0033H27.723Z" stroke="#A01400"/>
</g>
</g>
<g filter="url(#filter5_f_7277_57868)">
<g filter="url(#filter6_f_7277_57868)">
<path d="M19.2279 15.4639L18.9541 15.7961L19.2419 16.1162L19.9203 16.871V18.2082L18.409 19.6472H11.9757V11.9167H18.4267L19.9203 13.3781V14.624L19.2279 15.4639ZM17.4808 19.089H17.5899L17.6891 19.0435C18.2367 18.7926 18.5868 18.243 18.5955 17.6425L18.5955 17.6424C18.6041 17.0264 18.2513 16.4542 17.6889 16.1968L17.5898 16.1514H17.4808H13.7611H13.2611V16.6514V18.589V19.089H13.7611H17.4808ZM17.4808 15.468H17.5899L17.6891 15.4226C18.2367 15.1717 18.5868 14.622 18.5955 14.0216L18.5955 14.0214C18.6041 13.4054 18.2513 12.8333 17.6889 12.5758L17.5898 12.5304H17.4808H13.7611H13.2611V13.0304V14.968V15.468H13.7611H17.4808Z" stroke="#A01400"/>
</g>
<g filter="url(#filter7_f_7277_57868)">
<path d="M22.166 18.1731V11.9167H23.5026V17.5515V17.7586L23.649 17.905L24.5785 18.835L24.725 18.9816H24.9322H30.0972V19.6472H23.6418L22.166 18.1731Z" stroke="#A01400"/>
</g>
<g filter="url(#filter8_f_7277_57868)">
<path d="M11.9715 21.4879H13.2879V27.1967V27.4119L13.4442 27.5598L14.3828 28.4481L14.5274 28.585H14.7265H17.0801H17.2789L17.4234 28.4485L18.3403 27.5826L18.497 27.4347V27.2191V21.4879H19.9203V27.8761L18.4616 29.3168H13.4122L11.9184 27.8029L11.9715 21.4879Z" stroke="#A01400"/>
</g>
<g filter="url(#filter9_f_7277_57868)">
<path d="M28.625 21.4879L30.0975 22.8757V24.3051L29.3723 25.0552L29.0375 25.4015L29.3711 25.749L30.0975 26.5056V29.3168H28.7645L28.7419 26.6638L28.7397 26.4034L28.525 26.2559L27.8945 25.823L27.769 25.7368L27.6168 25.7352L23.9523 25.6958L23.4469 25.6904V26.1958V29.3168H22.1663V21.4879H28.625ZM27.723 25.029H27.8321L27.9313 24.9835C28.4788 24.7326 28.829 24.1829 28.8376 23.5825L28.8376 23.5823C28.8463 22.9663 28.4935 22.3942 27.9311 22.1367L27.832 22.0914H27.723H24.0033H23.5033V22.5914V24.529V25.029H24.0033H27.723Z" stroke="#A01400"/>
</g>
</g>
<mask id="mask1_7277_57868" style="mask-type:luminance" maskUnits="userSpaceOnUse" x="11" y="11" width="10" height="10">
<path d="M20.4203 13.1856L18.6306 11.4364H11.4757V20.1575H18.6089L20.4203 18.4347V16.6934L19.6137 15.797L20.4203 14.8196V13.1856ZM17.4808 18.601H13.7611V16.6655H17.4808C17.8591 16.8385 18.1014 17.2265 18.0955 17.6484C18.0896 18.0596 17.8492 18.4323 17.4808 18.601ZM17.4808 14.9839H13.7611V13.0484H17.4808C17.8591 13.2214 18.1014 13.6094 18.0955 14.0313C18.0896 14.4425 17.8492 14.8152 17.4808 14.9839Z" fill="white"/>
</mask>
<g mask="url(#mask1_7277_57868)">
<path d="M31.0592 11.4167H10.5103V12.0851H31.0592V11.4167Z" fill="#FF8300"/>
<path d="M31.0592 12.321H10.5103V12.9894H31.0592V12.321Z" fill="#FF8300"/>
<path d="M31.0592 13.2253H10.5103V13.8937H31.0592V13.2253Z" fill="#FF8300"/>
<path d="M31.0592 14.1295H10.5103V14.7979H31.0592V14.1295Z" fill="#FF8300"/>
<path d="M31.0592 15.0338H10.5103V15.7022H31.0592V15.0338Z" fill="#FF8300"/>
<path d="M31.0592 15.9381H10.5103V16.6065H31.0592V15.9381Z" fill="#FF8300"/>
<path d="M31.0592 16.8424H10.5103V17.5108H31.0592V16.8424Z" fill="#FF8300"/>
<path d="M31.0592 17.7467H10.5103V18.4151H31.0592V17.7467Z" fill="#FF8300"/>
<path d="M31.0592 18.6509H10.5103V19.3193H31.0592V18.6509Z" fill="#FF8300"/>
<path d="M31.0592 19.5552H10.5103V20.2236H31.0592V19.5552Z" fill="#FF8300"/>
</g>
<mask id="mask2_7277_57868" style="mask-type:luminance" maskUnits="userSpaceOnUse" x="21" y="11" width="10" height="10">
<path d="M21.666 11.4364H24.0026V17.5646L24.9322 18.4937H30.5972V20.1575H23.4348L21.666 18.3926V11.4364Z" fill="white"/>
</mask>
<g mask="url(#mask2_7277_57868)">
<path d="M31.0593 11.4167H10.5104V12.0851H31.0593V11.4167Z" fill="#FF8300"/>
<path d="M31.0593 12.321H10.5104V12.9894H31.0593V12.321Z" fill="#FF8300"/>
<path d="M31.0593 13.2253H10.5104V13.8937H31.0593V13.2253Z" fill="#FF8300"/>
<path d="M31.0593 14.1295H10.5104V14.7979H31.0593V14.1295Z" fill="#FF8300"/>
<path d="M31.0593 15.0338H10.5104V15.7022H31.0593V15.0338Z" fill="#FF8300"/>
<path d="M31.0593 15.9381H10.5104V16.6065H31.0593V15.9381Z" fill="#FF8300"/>
<path d="M31.0593 16.8424H10.5104V17.5108H31.0593V16.8424Z" fill="#FF8300"/>
<path d="M31.0593 17.7467H10.5104V18.4151H31.0593V17.7467Z" fill="#FF8300"/>
<path d="M31.0593 18.6509H10.5104V19.3193H31.0593V18.6509Z" fill="#FF8300"/>
<path d="M31.0593 19.5552H10.5104V20.2236H31.0593V19.5552Z" fill="#FF8300"/>
</g>
<mask id="mask3_7277_57868" style="mask-type:luminance" maskUnits="userSpaceOnUse" x="11" y="20" width="10" height="10">
<path d="M11.4757 20.9973H13.7879V27.1995L14.7265 28.0868H17.0801L17.997 27.2219V20.9973H20.4203V28.0868L18.6669 29.8167H13.2032L11.4166 28.0082L11.4757 20.9973Z" fill="white"/>
</mask>
<g mask="url(#mask3_7277_57868)">
<path d="M30.9824 20.9902H10.4335V21.6586H30.9824V20.9902Z" fill="#FF8300"/>
<path d="M30.9823 21.8945H10.4333V22.5629H30.9823V21.8945Z" fill="#FF8300"/>
<path d="M30.9823 22.7988H10.4333V23.4672H30.9823V22.7988Z" fill="#FF8300"/>
<path d="M30.9823 23.703H10.4333V24.3714H30.9823V23.703Z" fill="#FF8300"/>
<path d="M30.9823 24.6073H10.4333V25.2757H30.9823V24.6073Z" fill="#FF8300"/>
<path d="M30.9823 25.5116H10.4333V26.18H30.9823V25.5116Z" fill="#FF8300"/>
<path d="M30.9823 26.4159H10.4333V27.0843H30.9823V26.4159Z" fill="#FF8300"/>
<path d="M30.9823 27.3202H10.4333V27.9886H30.9823V27.3202Z" fill="#FF8300"/>
<path d="M30.9823 28.2245H10.4333V28.8929H30.9823V28.2245Z" fill="#FF8300"/>
<path d="M30.9823 29.1287H10.4333V29.797H30.9823V29.1287Z" fill="#FF8300"/>
</g>
<mask id="mask4_7277_57868" style="mask-type:luminance" maskUnits="userSpaceOnUse" x="21" y="20" width="10" height="10">
<path d="M30.5971 22.6671L28.8235 20.9973H21.6663V29.8167H23.9469V26.1996L27.6115 26.239L28.2419 26.6714L28.2687 29.8167H30.5975V26.3082L29.7318 25.4074L30.5975 24.513V22.6675L30.5971 22.6671ZM27.723 24.5346H24.0033V22.5991H27.723C28.1013 22.7721 28.3436 23.1601 28.3377 23.582C28.3318 23.9932 28.0914 24.3659 27.723 24.5346Z" fill="white"/>
</mask>
<g mask="url(#mask4_7277_57868)">
<path d="M30.9824 20.9902H10.4335V21.6586H30.9824V20.9902Z" fill="#FF8300"/>
<path d="M30.9823 21.8945H10.4333V22.5629H30.9823V21.8945Z" fill="#FF8300"/>
<path d="M30.9823 22.7988H10.4333V23.4672H30.9823V22.7988Z" fill="#FF8300"/>
<path d="M30.9823 23.703H10.4333V24.3714H30.9823V23.703Z" fill="#FF8300"/>
<path d="M30.9823 24.6073H10.4333V25.2757H30.9823V24.6073Z" fill="#FF8300"/>
<path d="M30.9823 25.5116H10.4333V26.18H30.9823V25.5116Z" fill="#FF8300"/>
<path d="M30.9823 26.4159H10.4333V27.0843H30.9823V26.4159Z" fill="#FF8300"/>
<path d="M30.9823 27.3202H10.4333V27.9886H30.9823V27.3202Z" fill="#FF8300"/>
<path d="M30.9823 28.2245H10.4333V28.8929H30.9823V28.2245Z" fill="#FF8300"/>
<path d="M30.9823 29.1287H10.4333V29.797H30.9823V29.1287Z" fill="#FF8300"/>
</g>
</g>
</g>
<defs>
<filter id="filter0_f_7277_57868" x="10.4166" y="10.4167" width="21.1809" height="20.4" filterUnits="userSpaceOnUse" color-interpolation-filters="sRGB">
<feFlood flood-opacity="0" result="BackgroundImageFix"/>
<feBlend mode="normal" in="SourceGraphic" in2="BackgroundImageFix" result="shape"/>
<feGaussianBlur stdDeviation="0.5" result="effect1_foregroundBlur_7277_57868"/>
</filter>
<filter id="filter1_f_7277_57868" x="10.4757" y="10.4167" width="10.9446" height="10.7305" filterUnits="userSpaceOnUse" color-interpolation-filters="sRGB">
<feFlood flood-opacity="0" result="BackgroundImageFix"/>
<feBlend mode="normal" in="SourceGraphic" in2="BackgroundImageFix" result="shape"/>
<feGaussianBlur stdDeviation="0.5" result="effect1_foregroundBlur_7277_57868"/>
</filter>
<filter id="filter2_f_7277_57868" x="20.666" y="10.4167" width="10.9313" height="10.7305" filterUnits="userSpaceOnUse" color-interpolation-filters="sRGB">
<feFlood flood-opacity="0" result="BackgroundImageFix"/>
<feBlend mode="normal" in="SourceGraphic" in2="BackgroundImageFix" result="shape"/>
<feGaussianBlur stdDeviation="0.5" result="effect1_foregroundBlur_7277_57868"/>
</filter>
<filter id="filter3_f_7277_57868" x="10.4166" y="19.9879" width="11.0037" height="10.8289" filterUnits="userSpaceOnUse" color-interpolation-filters="sRGB">
<feFlood flood-opacity="0" result="BackgroundImageFix"/>
<feBlend mode="normal" in="SourceGraphic" in2="BackgroundImageFix" result="shape"/>
<feGaussianBlur stdDeviation="0.5" result="effect1_foregroundBlur_7277_57868"/>
</filter>
<filter id="filter4_f_7277_57868" x="20.6663" y="19.9879" width="10.9313" height="10.8289" filterUnits="userSpaceOnUse" color-interpolation-filters="sRGB">
<feFlood flood-opacity="0" result="BackgroundImageFix"/>
<feBlend mode="normal" in="SourceGraphic" in2="BackgroundImageFix" result="shape"/>
<feGaussianBlur stdDeviation="0.5" result="effect1_foregroundBlur_7277_57868"/>
</filter>
<filter id="filter5_f_7277_57868" x="10.4166" y="10.4167" width="21.1809" height="20.4" filterUnits="userSpaceOnUse" color-interpolation-filters="sRGB">
<feFlood flood-opacity="0" result="BackgroundImageFix"/>
<feBlend mode="normal" in="SourceGraphic" in2="BackgroundImageFix" result="shape"/>
<feGaussianBlur stdDeviation="0.5" result="effect1_foregroundBlur_7277_57868"/>
</filter>
<filter id="filter6_f_7277_57868" x="10.4757" y="10.4167" width="10.9446" height="10.7305" filterUnits="userSpaceOnUse" color-interpolation-filters="sRGB">
<feFlood flood-opacity="0" result="BackgroundImageFix"/>
<feBlend mode="normal" in="SourceGraphic" in2="BackgroundImageFix" result="shape"/>
<feGaussianBlur stdDeviation="0.5" result="effect1_foregroundBlur_7277_57868"/>
</filter>
<filter id="filter7_f_7277_57868" x="20.666" y="10.4167" width="10.9313" height="10.7305" filterUnits="userSpaceOnUse" color-interpolation-filters="sRGB">
<feFlood flood-opacity="0" result="BackgroundImageFix"/>
<feBlend mode="normal" in="SourceGraphic" in2="BackgroundImageFix" result="shape"/>
<feGaussianBlur stdDeviation="0.5" result="effect1_foregroundBlur_7277_57868"/>
</filter>
<filter id="filter8_f_7277_57868" x="10.4166" y="19.9879" width="11.0037" height="10.8289" filterUnits="userSpaceOnUse" color-interpolation-filters="sRGB">
<feFlood flood-opacity="0" result="BackgroundImageFix"/>
<feBlend mode="normal" in="SourceGraphic" in2="BackgroundImageFix" result="shape"/>
<feGaussianBlur stdDeviation="0.5" result="effect1_foregroundBlur_7277_57868"/>
</filter>
<filter id="filter9_f_7277_57868" x="20.6663" y="19.9879" width="10.9313" height="10.8289" filterUnits="userSpaceOnUse" color-interpolation-filters="sRGB">
<feFlood flood-opacity="0" result="BackgroundImageFix"/>
<feBlend mode="normal" in="SourceGraphic" in2="BackgroundImageFix" result="shape"/>
<feGaussianBlur stdDeviation="0.5" result="effect1_foregroundBlur_7277_57868"/>
</filter>
<linearGradient id="paint0_linear_7277_57868" x1="21" y1="0" x2="21" y2="61.4091" gradientUnits="userSpaceOnUse">
<stop stop-color="#08021E"/>
<stop offset="1" stop-color="#1F0777"/>
</linearGradient>
<clipPath id="clip0_7277_57868">
<rect width="42" height="42" fill="white"/>
</clipPath>
<clipPath id="clip1_7277_57868">
<rect x="4.8999" y="4.90002" width="32.2" height="32.2" rx="16.1" fill="white"/>
</clipPath>
</defs>
</svg>

<svg xmlns="http://www.w3.org/2000/svg" width="42" height="42" fill="none"><g clip-path="url(#a)"><mask id="c" width="42" height="42" x="0" y="0" maskUnits="userSpaceOnUse" style="mask-type:alpha"><circle cx="21" cy="21" r="21" fill="url(#b)" transform="matrix(-1 0 0 1 42 0)"/></mask><g mask="url(#c)"><circle cx="21" cy="21" r="21" fill="#34EDB3" transform="matrix(-1 0 0 1 42 0)"/><circle cx="18.2" cy="18.2" r="18.2" fill="#fff" transform="matrix(-1 0 0 1 39.2 2.8)"/></g><circle cx="16.1" cy="16.1" r="16.1" fill="#0B0B22" transform="matrix(-1 0 0 1 37.1 4.9)"/><g clip-path="url(#d)"><circle cx="21" cy="21" r="16.1" fill="#0D0808"/><g filter="url(#e)"><g filter="url(#f)"><path stroke="#A01400" d="m19.228 15.464-.274.332.288.32.678.755v1.337l-1.511 1.44h-6.433v-7.731h6.45l1.494 1.461v1.246l-.692.84Zm-1.747 3.625h.109l.1-.045c.547-.251.897-.801.905-1.402a1.566 1.566 0 0 0-.906-1.445l-.1-.046h-4.328V19.09H17.481Zm0-3.621h.109l.1-.045c.547-.251.897-.801.905-1.401a1.566 1.566 0 0 0-.906-1.446l-.1-.046h-4.328V15.468H17.481Z"/></g><g filter="url(#g)"><path stroke="#A01400" d="M22.166 18.173v-6.256h1.337v5.842l.146.146.93.93.146.147h5.372v.665h-6.455l-1.476-1.474Z"/></g><g filter="url(#h)"><path stroke="#A01400" d="M11.972 21.488h1.316V27.412l.156.148.939.888.144.137H17.28l.144-.137.917-.865.157-.148v-5.947h1.423v6.388l-1.458 1.44h-5.05l-1.494-1.513.054-6.315Z"/></g><g filter="url(#i)"><path stroke="#A01400" d="m28.625 21.488 1.473 1.388v1.43l-.726.75-.334.345.333.348.727.757v2.81h-1.333l-.023-2.652-.002-.26-.215-.148-.63-.433-.126-.086-.152-.002-3.665-.04-.505-.005V29.316h-1.28v-7.828h6.458Zm-.902 3.541h.11l.098-.046c.548-.25.898-.8.907-1.4a1.566 1.566 0 0 0-.907-1.446l-.099-.046H23.503V25.03H27.723Z"/></g></g><g filter="url(#j)"><g filter="url(#k)"><path stroke="#A01400" d="m19.228 15.464-.274.332.288.32.678.755v1.337l-1.511 1.44h-6.433v-7.731h6.45l1.494 1.461v1.246l-.692.84Zm-1.747 3.625h.109l.1-.045c.547-.251.897-.801.905-1.402a1.566 1.566 0 0 0-.906-1.445l-.1-.046h-4.328V19.09H17.481Zm0-3.621h.109l.1-.045c.547-.251.897-.801.905-1.401a1.566 1.566 0 0 0-.906-1.446l-.1-.046h-4.328V15.468H17.481Z"/></g><g filter="url(#l)"><path stroke="#A01400" d="M22.166 18.173v-6.256h1.337v5.842l.146.146.93.93.146.147h5.372v.665h-6.455l-1.476-1.474Z"/></g><g filter="url(#m)"><path stroke="#A01400" d="M11.972 21.488h1.316V27.412l.156.148.939.888.144.137H17.28l.144-.137.917-.865.157-.148v-5.947h1.423v6.388l-1.458 1.44h-5.05l-1.494-1.513.054-6.315Z"/></g><g filter="url(#n)"><path stroke="#A01400" d="m28.625 21.488 1.473 1.388v1.43l-.726.75-.334.345.333.348.727.757v2.81h-1.333l-.023-2.652-.002-.26-.215-.148-.63-.433-.126-.086-.152-.002-3.665-.04-.505-.005V29.316h-1.28v-7.828h6.458Zm-.902 3.541h.11l.098-.046c.548-.25.898-.8.907-1.4a1.566 1.566 0 0 0-.907-1.446l-.099-.046H23.503V25.03H27.723Z"/></g></g><mask id="o" width="10" height="10" x="11" y="11" maskUnits="userSpaceOnUse" style="mask-type:luminance"><path fill="#fff" d="m20.42 13.186-1.79-1.75h-7.154v8.721h7.133l1.811-1.722v-1.742l-.806-.896.806-.977v-1.634ZM17.48 18.6h-3.719v-1.935h3.72c.378.172.62.56.614.982a1.064 1.064 0 0 1-.614.953Zm0-3.617h-3.719v-1.936h3.72c.378.173.62.561.614.983a1.064 1.064 0 0 1-.614.953Z"/></mask><g fill="#FF8300" mask="url(#o)"><path d="M31.06 11.417H10.51v.668h20.55v-.668ZM31.06 12.321H10.51v.668h20.55v-.668ZM31.06 13.225H10.51v.669h20.55v-.669ZM31.06 14.13H10.51v.668h20.55v-.668ZM31.06 15.034H10.51v.668h20.55v-.668ZM31.06 15.938H10.51v.668h20.55v-.668ZM31.06 16.842H10.51v.669h20.55v-.669ZM31.06 17.747H10.51v.668h20.55v-.668ZM31.06 18.65H10.51v.67h20.55v-.67ZM31.06 19.555H10.51v.669h20.55v-.669Z"/></g><mask id="p" width="10" height="10" x="21" y="11" maskUnits="userSpaceOnUse" style="mask-type:luminance"><path fill="#fff" d="M21.666 11.436h2.337v6.129l.93.929h5.664v1.663h-7.162l-1.769-1.764v-6.957Z"/></mask><g fill="#FF8300" mask="url(#p)"><path d="M31.06 11.417H10.51v.668h20.55v-.668ZM31.06 12.321H10.51v.668h20.55v-.668ZM31.06 13.225H10.51v.669h20.55v-.669ZM31.06 14.13H10.51v.668h20.55v-.668ZM31.06 15.034H10.51v.668h20.55v-.668ZM31.06 15.938H10.51v.668h20.55v-.668ZM31.06 16.842H10.51v.669h20.55v-.669ZM31.06 17.747H10.51v.668h20.55v-.668ZM31.06 18.65H10.51v.67h20.55v-.67ZM31.06 19.555H10.51v.669h20.55v-.669Z"/></g><mask id="q" width="10" height="10" x="11" y="20" maskUnits="userSpaceOnUse" style="mask-type:luminance"><path fill="#fff" d="M11.476 20.997h2.312V27.2l.938.887h2.354l.917-.865v-6.225h2.423v7.09l-1.753 1.73h-5.464l-1.786-1.809.059-7.01Z"/></mask><g fill="#FF8300" mask="url(#q)"><path d="M30.982 20.99H10.434v.669h20.548v-.669ZM30.982 21.895H10.433v.668h20.55v-.668ZM30.982 22.799H10.433v.668h20.55V22.8ZM30.982 23.703H10.433v.668h20.55v-.668ZM30.982 24.607H10.433v.669h20.55v-.669ZM30.982 25.512H10.433v.668h20.55v-.668ZM30.982 26.416H10.433v.668h20.55v-.668ZM30.982 27.32H10.433v.669h20.55v-.669ZM30.982 28.224H10.433v.669h20.55v-.669ZM30.982 29.129H10.433v.668h20.55v-.668Z"/></g><mask id="r" width="10" height="10" x="21" y="20" maskUnits="userSpaceOnUse" style="mask-type:luminance"><path fill="#fff" d="m30.597 22.667-1.774-1.67h-7.157v8.82h2.28V26.2l3.665.039.63.432.028 3.146h2.329v-3.509l-.866-.9.866-.895v-1.846Zm-2.874 1.868h-3.72v-1.936h3.72c.378.173.62.561.615.983a1.064 1.064 0 0 1-.615.953Z"/></mask><g fill="#FF8300" mask="url(#r)"><path d="M30.982 20.99H10.434v.669h20.548v-.669ZM30.982 21.895H10.433v.668h20.55v-.668ZM30.982 22.799H10.433v.668h20.55V22.8ZM30.982 23.703H10.433v.668h20.55v-.668ZM30.982 24.607H10.433v.669h20.55v-.669ZM30.982 25.512H10.433v.668h20.55v-.668ZM30.982 26.416H10.433v.668h20.55v-.668ZM30.982 27.32H10.433v.669h20.55v-.669ZM30.982 28.224H10.433v.669h20.55v-.669ZM30.982 29.129H10.433v.668h20.55v-.668Z"/></g></g></g><defs><filter id="e" width="21.181" height="20.4" x="10.417" y="10.417" color-interpolation-filters="sRGB" filterUnits="userSpaceOnUse"><feFlood flood-opacity="0" result="BackgroundImageFix"/><feBlend in="SourceGraphic" in2="BackgroundImageFix" result="shape"/><feGaussianBlur result="effect1_foregroundBlur_7277_57868" stdDeviation=".5"/></filter><filter id="f" width="10.945" height="10.73" x="10.476" y="10.417" color-interpolation-filters="sRGB" filterUnits="userSpaceOnUse"><feFlood flood-opacity="0" result="BackgroundImageFix"/><feBlend in="SourceGraphic" in2="BackgroundImageFix" result="shape"/><feGaussianBlur result="effect1_foregroundBlur_7277_57868" stdDeviation=".5"/></filter><filter id="g" width="10.931" height="10.73" x="20.666" y="10.417" color-interpolation-filters="sRGB" filterUnits="userSpaceOnUse"><feFlood flood-opacity="0" result="BackgroundImageFix"/><feBlend in="SourceGraphic" in2="BackgroundImageFix" result="shape"/><feGaussianBlur result="effect1_foregroundBlur_7277_57868" stdDeviation=".5"/></filter><filter id="h" width="11.004" height="10.829" x="10.417" y="19.988" color-interpolation-filters="sRGB" filterUnits="userSpaceOnUse"><feFlood flood-opacity="0" result="BackgroundImageFix"/><feBlend in="SourceGraphic" in2="BackgroundImageFix" result="shape"/><feGaussianBlur result="effect1_foregroundBlur_7277_57868" stdDeviation=".5"/></filter><filter id="i" width="10.931" height="10.829" x="20.666" y="19.988" color-interpolation-filters="sRGB" filterUnits="userSpaceOnUse"><feFlood flood-opacity="0" result="BackgroundImageFix"/><feBlend in="SourceGraphic" in2="BackgroundImageFix" result="shape"/><feGaussianBlur result="effect1_foregroundBlur_7277_57868" stdDeviation=".5"/></filter><filter id="j" width="21.181" height="20.4" x="10.417" y="10.417" color-interpolation-filters="sRGB" filterUnits="userSpaceOnUse"><feFlood flood-opacity="0" result="BackgroundImageFix"/><feBlend in="SourceGraphic" in2="BackgroundImageFix" result="shape"/><feGaussianBlur result="effect1_foregroundBlur_7277_57868" stdDeviation=".5"/></filter><filter id="k" width="10.945" height="10.73" x="10.476" y="10.417" color-interpolation-filters="sRGB" filterUnits="userSpaceOnUse"><feFlood flood-opacity="0" result="BackgroundImageFix"/><feBlend in="SourceGraphic" in2="BackgroundImageFix" result="shape"/><feGaussianBlur result="effect1_foregroundBlur_7277_57868" stdDeviation=".5"/></filter><filter id="l" width="10.931" height="10.73" x="20.666" y="10.417" color-interpolation-filters="sRGB" filterUnits="userSpaceOnUse"><feFlood flood-opacity="0" result="BackgroundImageFix"/><feBlend in="SourceGraphic" in2="BackgroundImageFix" result="shape"/><feGaussianBlur result="effect1_foregroundBlur_7277_57868" stdDeviation=".5"/></filter><filter id="m" width="11.004" height="10.829" x="10.417" y="19.988" color-interpolation-filters="sRGB" filterUnits="userSpaceOnUse"><feFlood flood-opacity="0" result="BackgroundImageFix"/><feBlend in="SourceGraphic" in2="BackgroundImageFix" result="shape"/><feGaussianBlur result="effect1_foregroundBlur_7277_57868" stdDeviation=".5"/></filter><filter id="n" width="10.931" height="10.829" x="20.666" y="19.988" color-interpolation-filters="sRGB" filterUnits="userSpaceOnUse"><feFlood flood-opacity="0" result="BackgroundImageFix"/><feBlend in="SourceGraphic" in2="BackgroundImageFix" result="shape"/><feGaussianBlur result="effect1_foregroundBlur_7277_57868" stdDeviation=".5"/></filter><clipPath id="a"><path fill="#fff" d="M0 0h42v42H0z"/></clipPath><clipPath id="d"><rect width="32.2" height="32.2" x="4.9" y="4.9" fill="#fff" rx="16.1"/></clipPath><linearGradient id="b" x1="21" x2="21" y1="0" y2="61.409" gradientUnits="userSpaceOnUse"><stop stop-color="#08021E"/><stop offset="1" stop-color="#1F0777"/></linearGradient></defs></svg>
